public/icon/watch-w.svg

<svg width="33" height="33" viewBox="0 0 33 33" fill="none" xmlns="http://www.w3.org/2000/svg">
<g clip-path="url(#clip0_184_1866)">
<path d="M16.4681 0.0817871C13.239 0.0817871 10.0825 1.03932 7.3976 2.8333C4.71272 4.62729 2.62011 7.17714 1.38439 10.1604C0.148676 13.1437 -0.174644 16.4264 0.455318 19.5935C1.08528 22.7605 2.64023 25.6696 4.92353 27.9529C7.20684 30.2362 10.1159 31.7912 13.283 32.4211C16.45 33.0511 19.7327 32.7278 22.716 31.4921C25.6993 30.2563 28.2491 28.1637 30.0431 25.4788C31.8371 22.794 32.7946 19.6374 32.7946 16.4083C32.7946 12.0783 31.0745 7.92553 28.0127 4.86372C24.9509 1.8019 20.7982 0.0817871 16.4681 0.0817871ZM17.4885 30.643V26.6124H15.4477V30.643C12.0253 30.3946 8.80656 28.9227 6.38016 26.4963C3.95376 24.0699 2.4818 20.8512 2.23344 17.4287H6.26405V15.3879H2.23344C2.4818 11.9655 3.95376 8.74675 6.38016 6.32034C8.80656 3.89394 12.0253 2.42198 15.4477 2.17362V6.20424H17.4885V2.17362C20.911 2.42198 24.1297 3.89394 26.5561 6.32034C28.9825 8.74675 30.4544 11.9655 30.7028 15.3879H26.6722V17.4287H30.7028C30.4544 20.8512 28.9825 24.0699 26.5561 26.4963C24.1297 28.9227 20.911 30.3946 17.4885 30.643Z" fill="url(#paint0_linear_184_1866)"/>
<path d="M17.4881 9.26562H15.4473V16.4085C15.4465 16.5428 15.4722 16.6759 15.523 16.8002C15.5738 16.9245 15.6486 17.0376 15.7432 17.133L20.8452 22.235L22.284 20.7962L17.4881 15.9901V9.26562Z" fill="url(#paint1_linear_184_1866)"/>
</g>
<defs>
<linearGradient id="paint0_linear_184_1866" x1="0.141602" y1="16.4083" x2="32.7946" y2="16.4083" gradientUnits="userSpaceOnUse">
<stop stop-color="#3068D0"/>
<stop offset="0.5" stop-color="#836BAF"/>
<stop offset="1" stop-color="#978262"/>
</linearGradient>
<linearGradient id="paint1_linear_184_1866" x1="15.4473" y1="15.7503" x2="22.284" y2="15.7503" gradientUnits="userSpaceOnUse">
<stop stop-color="#3068D0"/>
<stop offset="0.5" stop-color="#836BAF"/>
<stop offset="1" stop-color="#978262"/>
</linearGradient>
<clipPath id="clip0_184_1866">
<rect width="32.653" height="32.6531" fill="white" transform="translate(0.142578 0.0820312)"/>
</clipPath>
</defs>
</svg>

<svg width="33" height="33" fill="none" xmlns="http://www.w3.org/2000/svg"><g clip-path="url(#a)"><path d="M16.468.082a16.326 16.326 0 1 0 0 32.653 16.326 16.326 0 0 0 0-32.653Zm1.02 30.561v-4.03h-2.04v4.03A14.286 14.286 0 0 1 2.233 17.429h4.031v-2.041h-4.03A14.286 14.286 0 0 1 15.447 2.174v4.03h2.04v-4.03a14.286 14.286 0 0 1 13.215 13.214h-4.03v2.04h4.03a14.286 14.286 0 0 1-13.215 13.215Z" fill="url(#b)"/><path d="M17.488 9.266h-2.04v7.143a1.02 1.02 0 0 0 .295.724l5.102 5.102 1.439-1.439-4.796-4.806V9.266Z" fill="url(#c)"/></g><defs><linearGradient id="b" x1=".142" y1="16.408" x2="32.795" y2="16.408" gradientUnits="userSpaceOnUse"><stop stop-color="#3068D0"/><stop offset=".5" stop-color="#836BAF"/><stop offset="1" stop-color="#978262"/></linearGradient><linearGradient id="c" x1="15.447" y1="15.75" x2="22.284" y2="15.75" gradientUnits="userSpaceOnUse"><stop stop-color="#3068D0"/><stop offset=".5" stop-color="#836BAF"/><stop offset="1" stop-color="#978262"/></linearGradient><clipPath id="a"><path fill="#fff" transform="translate(.143 .082)" d="M0 0h32.653v32.653H0z"/></clipPath></defs></svg>
